!!!COM: Fe/licien David
!!!CNT: Francais
!!!TXO: Francais
!!!OTL: Le Captif
!!!LYR: Sylvain St. Etienne
!!!ENC: Jacob Pegg
!!!YOR: Romantic French Song 1830-1870, David Tunley, ed., New York: Garland Publishing, Inc., 1995
!!!ODT: 1847/
!!NB: Vocal melody and text only encoded.
!!NB: first instance of melodic material only encoded.
**kern	**silbe
*clef G2	*
*k[b-e-]	*
*M6/8	*
=13	=13
4r	.
8r	.
{4b-	{Sur
16a	le
16g	pa-
=14	=14
4f	-lais
8dd	et
4ff	la
(16dd	chau-
16ee-)	|
=15	=15
4cc	-mie\-
8b-	-re
4b-	Le
16a	jour
16g	se
=16	=16
4f	le\-
8dd	-ve
4ff	ra-
(16dd	-di-
16een)	|
=17	=17
4.ff}	-eux;}
4r	.
8r	.
=18	=18
2.r	.
=19	=19
4r	.
{8cc	{Quand
(8cc	il
8ff)	|
8een	des-
=20	=20
4cc	-cend
8cc	du
(8cc	haut
8ff)	|
8een	des
=21	=21
4cc}	cieux,}
{8cc	{A
(8cc	ses
8cc#)	|
8dd	ray-
=22	=22
4een	-ons
8ff	doux
4f	et
8g	joy-
=23	=23
4a;}	-eux}
4r	.
8r	.
{8a	{Cha-
=24	=24
(8a	-cun
8en)	|
8cc#	es-
4a	-pe\-
8a	-re un
=25	=25
(8a	temps
8en)	|
8cc#	heu-
(8a	-reux,
8en)	|
8ff	es-
=26	=26
4ff	-pe\re
(16f	un
16g)	|
4a	temps
(16b-	heu-
16g)	|
=27	=27
4.f;}	-reux:}
{4f	{Mais
8f	ja-
=28	=28
4g-	-mais
8g-	sa
8f	vi-
8f	-ve
8f	lu-
=29	=29
4.g-	-mie\-
4f	-re
8b-	Ne
=30	=30
4b-	luit
16a-	sur
16a-	ces
8.g	murs
16a-	o-
8g	-di-
=31	=31
4f}	-eux,}
8r	.
{4f	{Sa
8f	lu-
=32	=32
4g-	-eur
8g-	sainte
8f	et
8f	tu-
8f	-te/-
=33	=33
4.g-	-lai-
4f	-re
8b-	Ja-
=34	=34
4b-	-mais
16a-	ne
16a-	con-
8.g	-so-
16a-	-le
8g	mes
=35	=35
4f}	yeux,}
8r	.
{4.dd-	{Ja-
=36	=36
4cc	-mais
8r	.
(8dd-	ne
8b-	|
8gg)	|
=37	=37
4.ff}	luit}
4r	.
{16f	{sur
16f	ces
=38	=38
4.f	murs
4r	.
16f	o-
16f	-di-
=39	=39
*M4/4	*
*MM[andante]	*
2f;}	-eux...}
4r	.
{4f	{O
=40	=40
2f	dou-
4.dd	-ce
8ee-	pa-
=41	=41
(4.dd	tri-
8cc)	|
4g}	-e}
{4g	{O
=42	=42
2g	dou-
4.cc	-ce
8dd	pa-
=43	=43
(4.cc	-tri-
8b-)	|
4f}	-e,}
{4b-	{Rends~
=44	=44
4b-	~moi
8a	ton
8g	ciel
4a	pur
8.b-	et
16a	ver-
=45	=45
4dd}	-meil,}
4r	.
{2een	{O
=46	=46
4r	.
2ff	Dou-
8ff	-ce
8ff	pa-
=47	=47
4ff	-tri-
4f}	-e,}
4r	.
{4f	{Re/-
=48	=48
4.f	-chauffe
8f	a\
4.dd	ton
8ee-	so-
=49	=49
(2dd	-leil
4cc)}	|}
8r	.
{8g	{Mon
=50	=50
2g	a^-
4.cc	-me
8dd	fle/-
=51	=51
4cc	-tri-
4b-}	-e!}
{2ee-	{O
=52	=52
4dd	Dou-
8dd	-ce
8dd	pa-
2gg	-tri-
=53	=53
2ff#}	-e,}
{8dd	{o^
8dd	dou-ce
8dd	-ce
8dd	pa-
=54	=54
(2ee-	-tri-
2een)	|
=55	=55
2ff}	-e,}
{4ff	{o^
4ff	pa-
=56	=56
4ff	-tri-
(2f	|
8cc)	|
8dd	|
=57	=57
*M6/8	*
4.b-;}	-e!}
4r	.
8r	.
=69	=69
4r	.
8r	.
!!'C' material - not identical to 1st strophe
*k[b-e-a-d-g-]	*
{4b-	{Je
16a-	veux
16g-	quit-
=70	=70
4.f	-ter
4f	ces
16cc	lieux
16dd-	de/-
=71	=71
4.b-	-serts
8b-	Ou\
8b-	s'em-
8b-	-pri-
=72	=72
4ee-	-son-
(16dd-	-ne
16cc-)	|
4b-	ma
(16a-	pen-
16g-)	|
=73	=73
4f	-se/-
8e-}	-e,}
8r	.
8r	.
{8ee-	{Et
=74	=74
8.dd-	voir
16ee-	en-
8ff	-cor
8r	.
8r	.
8ee-	tes
=75	=75
8.dd-	beaux
16ee-	champs
8ff	verts
8f	De
8g-	myrthe
8f	et
=76	=76
4b-	de
(16a-	pam-
16g-)	|
4e-	-pre
8f	cou-
=77	=77
4.d;}	-verts;}
{8f	{Je
8f	veux
8f	re-
=78	=78
4.g-	-voir
8f	la
8f	fi-
8f	-an-
=79	=79
4.g-	ce/-
4f}	-e}
{16b-	{Qui
16b-	m'of-
=80	=80
4b-	-rait
16a-	un
16a-	des-
(8.gn	-tin
16a-)	|
8g-	se
=81	=81
4f}	beau,}
8r	.
{4f	{A-
8f	-vant
=82	=82
4g-	que
8g-	de
8f	sa
8f	main
8f	gla-
=83	=83
4.g-	-ce/-
4f}	-e}
{8b-	{La
=84	=84
4b-	mort
16a-	ait
16a-	creu-
8.g-	-se/
16a-	mon
8g-	tom-
=85	=85
4.f	-beau
4.dd-	la
=86	=86
4.cc	mort
(8dd-	la
8b-	|
8ggn)	|
=87	=87
4.ff}	mort}
4r	.
{16f	{ait
16f	creu-
=88	=88
4.f	-se/
4r	.
16f	mon
16f	tom-
=89	=89
*M4/4	*
*k[b-e-]	*
2f;}	-beau!}
2r	.
!!repeat "O dou-ce patrie" section, mm. 40-56
!!thereafter melody is as in 1st 3 sections.
*-	*-
